contributed-vectors/tmrw_th.svg

<svg width="192" height="192" viewBox="0 0 192 192" fill="none" xmlns="http://www.w3.org/2000/svg">
<g clip-path="url(#clip0)">
<path d="M172.5 29.1V162.9C172.5 168.2 168.2 172.5 162.9 172.5H29.1C23.8 172.5 19.5 168.2 19.5 162.9V29.1C19.5 23.8 23.8 19.5 29.1 19.5H163C168.2 19.5 172.5 23.8 172.5 29.1Z" fill="url(#paint0_linear)"/>
<path d="M73.0022 85.98H58.5V89.8896H63.5791V106.029H67.9565V89.8896H73.0022V85.98Z" fill="white"/>
<path d="M90.4642 85.98L84.0819 99.8473L77.7664 85.98H72.988V106.029H77.3989V94.0665L82.8121 106.029H85.3517L90.7983 94.0999V106.029H95.2091V85.98H90.4642Z" fill="white"/>
<path d="M101.275 97.7756C103.648 97.0738 105.319 94.8684 105.319 92.1284C105.319 88.7201 102.779 85.98 99.3374 85.98H90.8165V106.029H95.2273V98.2768H96.9983L101.944 106.029H106.889L101.275 97.7756ZM98.6691 94.6346H95.2273V89.8896H98.6691C100.073 89.8896 101.108 90.892 101.108 92.2621C101.108 93.6655 100.073 94.6346 98.6691 94.6346Z" fill="white"/>
<path d="M126.855 85.98L123.28 99.8807L119.437 85.98H118.835H115.16L111.35 99.9475L107.742 85.98H103.097L108.577 106.029H113.656L117.298 91.9279L120.941 106.029H126.02L131.5 85.98H126.855Z" fill="white"/>
<path d="M123.28 99.8807L124.9 106.03H126.02L131.5 85.98H126.855L123.28 99.8807Z" fill="#F9DE81"/>
</g>
<defs>
<linearGradient id="paint0_linear" x1="19.5" y1="19.5" x2="172.5" y2="172.5" gradientUnits="userSpaceOnUse">
<stop stop-color="#9ABEFF"/>
<stop offset="0.75" stop-color="#9ABEFF"/>
<stop offset="1" stop-color="#FF837D"/>
<stop offset="1" stop-color="#FF837D"/>
</linearGradient>
<clipPath id="clip0">
<rect width="192" height="192" fill="white"/>
</clipPath>
</defs>
</svg>

<svg xmlns="http://www.w3.org/2000/svg" width="192" height="192" fill="none"><g clip-path="url(#a)"><path fill="url(#b)" d="M172.5 29.1v133.8c0 5.3-4.3 9.6-9.6 9.6H29.1c-5.3 0-9.6-4.3-9.6-9.6V29.1c0-5.3 4.3-9.6 9.6-9.6H163c5.2 0 9.5 4.3 9.5 9.6Z"/><path fill="#fff" d="M73.002 85.98H58.5v3.91h5.08v16.139h4.377v-16.14h5.045V85.98Z"/><path fill="#fff" d="m90.464 85.98-6.382 13.867-6.316-13.867h-4.778v20.049h4.41V94.067l5.414 11.962h2.54l5.446-11.93v11.93h4.411V85.98h-4.745Z"/><path fill="#fff" d="M101.275 97.776c2.373-.702 4.044-2.908 4.044-5.648 0-3.408-2.54-6.148-5.982-6.148h-8.52v20.049h4.41v-7.752h1.771l4.946 7.752h4.945l-5.614-8.253Zm-2.606-3.141h-3.442V89.89h3.442c1.404 0 2.439 1.002 2.439 2.372 0 1.403-1.035 2.373-2.439 2.373Z"/><path fill="#fff" d="m126.855 85.98-3.575 13.9-3.843-13.9h-4.277l-3.81 13.968-3.608-13.968h-4.645l5.48 20.049h5.079l3.642-14.101 3.643 14.101h5.079l5.48-20.049h-4.645Z"/><path fill="#F9DE81" d="m123.28 99.88 1.62 6.15h1.12l5.48-20.05h-4.645l-3.575 13.9Z"/></g><defs><linearGradient id="b" x1="19.5" x2="172.5" y1="19.5" y2="172.5" gradientUnits="userSpaceOnUse"><stop stop-color="#9ABEFF"/><stop offset=".75" stop-color="#9ABEFF"/><stop offset="1" stop-color="#FF837D"/><stop offset="1" stop-color="#FF837D"/></linearGradient><clipPath id="a"><path fill="#fff" d="M0 0h192v192H0z"/></clipPath></defs></svg>
